printer-pos-cancel.svg

<svg fill="currentColor" viewBox="0 0 24 24"><path d="M17 9H7V4h10zm-5 9.5c0 .17 0 .33.03.5H4v-7a2 2 0 0 1 2-2h12a2 2 0 0 1 2 2v.18c-.5-.11-1-.18-1.5-.18a6.5 6.5 0 0 0-6.5 6.5M10 12H6v2h4zm13 6.5c0 2.5-2 4.5-4.5 4.5S14 21 14 18.5s2-4.5 4.5-4.5 4.5 2 4.5 4.5m-3 2.58L15.92 17c-.27.42-.42.94-.42 1.5 0 1.66 1.34 3 3 3 .56 0 1.08-.15 1.5-.42m1.5-2.58c0-1.66-1.34-3-3-3-.56 0-1.08.15-1.5.42L21.08 20c.27-.42.42-.94.42-1.5"/></svg>

<svg  viewBox="0 0 24 24" fill="currentColor"><path  d="M17 9H7V4H17V9M12 18.5C12 18.67 12 18.83 12.03 19H4V12C4 10.9 4.89 10 6 10H18C19.11 10 20 10.9 20 12V12.18C19.5 12.07 19 12 18.5 12C14.91 12 12 14.91 12 18.5M10 12H6V14H10V12M23 18.5C23 21 21 23 18.5 23S14 21 14 18.5 16 14 18.5 14 23 16 23 18.5M20 21.08L15.92 17C15.65 17.42 15.5 17.94 15.5 18.5C15.5 20.16 16.84 21.5 18.5 21.5C19.06 21.5 19.58 21.35 20 21.08M21.5 18.5C21.5 16.84 20.16 15.5 18.5 15.5C17.94 15.5 17.42 15.65 17 15.92L21.08 20C21.35 19.58 21.5 19.06 21.5 18.5Z"/></svg>
